X: 5
T: The Cowboy
R: jig
M: 6/8
L: 1/8
K: Amaj
AEFA2B|cag aec|Bcd cAB|c>dc BAF|
AEFA2B|cag aec|Bcd c2B|1cAA A2B:|2cAA Ace|
|:eff f2d|fag fec|cee e2c|eaf ecA|
Bde f2e|fac B2f|ecA c2B|1cAA Ace:|2cAA A2B|


Tune 794	Setting 794

